dist/assets/images/card/erguard.svg

<svg width="85" height="140" viewBox="0 0 85 140" fill="none" xmlns="http://www.w3.org/2000/svg">
<rect width="85" height="140" fill="#F6F6F6"/>
<path fill-rule="evenodd" clip-rule="evenodd" d="M18 117.512V110.383H23.2406V111.563H19.4636V113.121H23.0045V114.301H19.4636V116.237H23.4295V117.417H18V117.512ZM24.6098 117.512V110.383H27.6314C28.3868 110.383 28.9533 110.43 29.2838 110.572C29.6143 110.713 29.8976 110.949 30.1336 111.233C30.3225 111.563 30.4641 111.941 30.4641 112.366C30.4641 112.885 30.3225 113.357 29.992 113.688C29.6615 114.018 29.1894 114.254 28.5756 114.349C28.9061 114.537 29.1422 114.726 29.331 114.962C29.5199 115.198 29.8032 115.576 30.1336 116.143L30.9835 117.512H29.2838L28.2451 115.954C27.8674 115.387 27.6314 115.057 27.4897 114.915C27.3481 114.774 27.2065 114.679 27.0648 114.632C26.9232 114.585 26.6871 114.537 26.3566 114.537H26.0734V117.512H24.6098ZM26.0734 113.404H27.112C27.8202 113.404 28.2451 113.357 28.3868 113.31C28.5756 113.263 28.6701 113.168 28.8117 113.027C28.9061 112.885 28.9533 112.696 28.9533 112.507C28.9533 112.271 28.9061 112.082 28.7645 111.941C28.6228 111.799 28.434 111.705 28.2451 111.657C28.1507 111.657 27.773 111.61 27.2065 111.61H26.0734V113.404ZM35.091 114.915V113.735H38.1598V116.568C37.8765 116.851 37.4044 117.134 36.8378 117.323C36.2713 117.559 35.7047 117.654 35.091 117.654C34.3356 117.654 33.7218 117.512 33.1553 117.181C32.5887 116.851 32.211 116.426 31.9277 115.859C31.6444 115.293 31.5028 114.632 31.5028 113.971C31.5028 113.216 31.6444 112.555 31.9749 111.988C32.3054 111.421 32.7303 110.949 33.3441 110.666C33.8162 110.43 34.3828 110.288 35.0438 110.288C35.9408 110.288 36.6018 110.477 37.1211 110.855C37.5932 111.233 37.9237 111.752 38.0654 112.413L36.649 112.696C36.5546 112.366 36.3657 112.082 36.0824 111.846C35.7992 111.657 35.4687 111.563 35.0438 111.563C34.43 111.563 33.9107 111.752 33.533 112.177C33.1553 112.555 32.9664 113.168 32.9664 113.971C32.9664 114.821 33.1553 115.435 33.533 115.859C33.9107 116.284 34.3828 116.473 34.9965 116.473C35.2798 116.473 35.6103 116.426 35.8936 116.284C36.1769 116.19 36.4601 116.001 36.649 115.859V114.962H35.091V114.915ZM39.529 110.43H40.9453V114.301C40.9453 114.915 40.9453 115.293 40.9925 115.482C41.0398 115.765 41.1814 116.001 41.4175 116.19C41.6535 116.379 41.9368 116.473 42.3617 116.473C42.7866 116.473 43.0699 116.379 43.2588 116.237C43.4476 116.048 43.5892 115.859 43.6365 115.623C43.6837 115.387 43.6837 114.962 43.6837 114.396V110.477H45.1473V114.207C45.1473 115.057 45.1 115.671 45.0528 116.001C44.9584 116.332 44.8168 116.662 44.6279 116.898C44.4391 117.134 44.1558 117.323 43.7781 117.465C43.4476 117.606 42.9755 117.701 42.4089 117.701C41.7479 117.701 41.2286 117.606 40.8509 117.465C40.5204 117.323 40.2371 117.087 40.0011 116.851C39.8122 116.615 39.6706 116.332 39.6234 116.048C39.529 115.623 39.4817 115.057 39.4817 114.254V110.43H39.529ZM53.079 117.512H51.521L50.9072 115.907H48.0744L47.5079 117.512H45.9971L48.7354 110.383H50.2462L53.079 117.512ZM50.4351 114.726L49.4436 112.082L48.4994 114.726H50.4351ZM53.8344 117.512V110.383H56.856C57.6114 110.383 58.1779 110.43 58.5084 110.572C58.8389 110.713 59.1222 110.949 59.3583 111.233C59.5471 111.563 59.6887 111.941 59.6887 112.366C59.6887 112.885 59.5471 113.357 59.2166 113.688C58.8861 114.018 58.414 114.254 57.8002 114.349C58.1307 114.537 58.3668 114.726 58.5556 114.962C58.7445 115.198 59.0278 115.576 59.3583 116.143L60.2081 117.512H58.5084L57.4698 115.954C57.0921 115.387 56.856 115.057 56.7144 114.915C56.5727 114.774 56.4311 114.679 56.2894 114.632C56.1478 114.585 55.9117 114.537 55.5812 114.537H55.298V117.512H53.8344ZM55.298 113.404H56.3367C57.0448 113.404 57.4698 113.357 57.6114 113.31C57.8002 113.263 57.8947 113.168 58.0363 113.027C58.1307 112.885 58.1779 112.696 58.1779 112.507C58.1779 112.271 58.1307 112.082 57.9891 111.941C57.8475 111.799 57.6586 111.705 57.4698 111.657C57.3753 111.657 56.9976 111.61 56.4311 111.61H55.298V113.404ZM61.0107 110.43H63.6074C64.1739 110.43 64.6461 110.477 64.9766 110.572C65.4015 110.713 65.732 110.902 66.0625 111.233C66.3457 111.563 66.5818 111.941 66.7234 112.366C66.8651 112.838 66.9595 113.357 66.9595 114.065C66.9595 114.632 66.8651 115.151 66.7234 115.576C66.5346 116.095 66.2985 116.52 65.968 116.851C65.732 117.087 65.4015 117.276 64.9766 117.417C64.6461 117.512 64.2212 117.559 63.7018 117.559H61.0107V110.43ZM62.4743 111.61V116.332H63.5602C63.9379 116.332 64.2684 116.332 64.41 116.284C64.6461 116.237 64.8349 116.143 64.9766 116.001C65.1182 115.859 65.2598 115.623 65.3543 115.293C65.4487 114.962 65.4959 114.537 65.4959 113.971C65.4959 113.404 65.4487 112.979 65.3543 112.696C65.2598 112.413 65.1182 112.177 64.9293 111.988C64.7405 111.846 64.5516 111.705 64.2684 111.657C64.0795 111.61 63.6546 111.61 63.0881 111.61H62.4743Z" fill="#313131"/>
<path fill-rule="evenodd" clip-rule="evenodd" d="M30.8419 23.087C30.7474 25.3532 30.653 27.6194 30.5586 29.8384C29.095 30.9715 27.5842 32.0574 26.1206 33.1905C26.1206 35.5984 26.1206 38.0062 26.1206 40.4613C27.6314 39.9892 29.1422 39.9892 30.653 39.9892C30.8891 45.6075 31.0307 51.273 31.2196 56.8913C31.314 57.5995 31.3612 58.3549 31.4556 59.0631C30.9363 59.5824 30.8891 60.0073 29.8504 60.6683C28.7173 61.282 28.434 61.2348 28.1507 62.6984C28.2924 64.4453 28.2924 64.5869 29.5199 65.5312C30.3697 65.7672 30.7474 65.9561 31.5973 65.5784C32.1166 78.7035 32.5887 91.7814 33.1081 104.907C33.3441 104.859 33.533 104.765 33.7691 104.718C33.7691 104.529 33.7691 104.34 33.7691 104.151C33.7691 103.962 33.7691 103.726 33.7691 103.537C33.7691 103.16 33.7691 102.829 33.7218 102.451C33.3913 90.0817 33.0609 77.712 32.7304 65.3423C33.533 64.823 34.194 64.3037 34.9494 63.6899C35.6103 66.1922 35.7992 68.4584 35.8464 71.1023C35.6576 71.9521 35.4687 72.8491 35.2799 73.699C34.9022 76.154 34.6189 78.5147 34.5245 80.9697C34.4772 81.5363 34.43 82.15 34.43 82.7166C34.6661 82.7166 34.9022 82.7166 35.1382 82.7166C35.4215 84.5579 35.6576 86.3992 35.7992 88.2405C35.091 91.6398 35.5159 94.4253 35.9408 97.7302L36.4602 102.074C36.5546 102.782 34.9966 103.585 35.0438 104.104C35.0438 104.67 35.988 105.001 36.4602 105.143C37.0267 105.19 36.9795 105.331 38.207 105.048C39.6234 104.718 39.6234 104.482 39.4818 103.443C39.3874 102.829 39.1985 102.735 39.1513 101.885C39.1041 100.705 39.2457 98.8633 39.2929 97.8246C39.4818 95.7001 39.9539 93.7171 40.2372 91.5926C40.2844 90.5539 40.3788 89.8457 40.1428 88.8542C40.2372 88.3821 40.3788 87.9572 40.4732 87.4851C40.6621 86.588 40.8037 85.691 40.8982 84.7939C40.9454 84.369 40.9454 83.9913 40.9926 83.5664C41.2759 83.5664 41.5591 83.6136 41.8424 83.6136C41.8896 84.8411 41.984 85.8326 42.2673 87.0129C42.409 87.6267 42.5506 88.2877 42.6922 88.9014C42.645 89.3736 42.645 89.8457 42.5978 90.3178C42.5506 90.8372 42.5034 91.3093 42.5034 91.8286C42.5506 92.4424 42.6922 93.0089 42.7867 93.5755C42.9283 94.3309 43.0699 95.0863 43.2116 95.8417C43.5421 97.4941 43.7781 101.649 43.6837 102.451C43.5893 102.829 43.3532 103.112 43.2588 103.537C43.2116 103.821 43.2116 104.009 43.2588 104.246C43.3532 104.623 43.7781 104.812 44.3447 104.859C45.4778 105.001 45.1473 105.001 46.3276 104.954C46.6581 104.954 47.1302 104.859 47.4135 104.576C47.6024 104.387 47.8856 103.915 47.744 103.679C47.3663 103.065 46.7053 102.735 46.186 102.31C46.186 102.31 46.186 101.696 46.2332 101.602C46.3276 101.177 46.9414 97.8246 46.9886 97.2581C47.3191 96.0778 47.3663 94.8502 47.5079 93.6699C47.6024 91.9703 47.5079 90.9316 47.0358 89.4208C47.1302 87.2962 47.1774 85.2661 47.4135 83.2359L48.4522 87.1546L49.1604 88.5709L49.8686 89.8929L50.0102 88.6182L50.1046 87.2018L48.5938 79.1756C49.0659 79.4117 49.4909 79.6005 49.963 79.8366C52.0403 77.2399 53.6456 74.6904 53.9288 71.1023C54.1177 67.3253 53.9761 63.501 53.5511 59.7712C53.5039 59.1575 53.4567 58.5909 53.4095 57.9772L50.3879 58.4965C49.963 57.1746 49.4909 56.2303 47.744 55.286C46.6109 54.6723 45.5722 54.3418 44.2503 53.9641C44.203 54.5779 44.7224 51.1785 44.7224 49.715C44.4391 48.5346 44.0142 47.4488 43.4476 46.3156C41.9368 46.174 40.4732 46.0796 38.9152 46.3156C38.4903 47.496 38.0182 48.5346 37.6405 49.8094C37.7821 51.3202 38.1126 52.6894 38.3015 54.1529C37.4516 54.4834 36.4602 54.6251 35.6576 55.05C34.3828 55.6165 33.533 56.4191 32.4471 57.3634C32.1638 51.5562 31.9278 45.7963 31.6917 39.9892C33.7691 40.3669 35.752 40.839 37.8293 41.4055C39.8123 42.0665 41.7952 42.7747 43.7309 43.5773C46.8942 44.4744 49.5381 45.0409 52.7485 44.8993C56.9032 44.2855 53.6928 44.2855 55.0619 41.4055C56.195 40.6029 57.517 40.2252 58.839 39.1393C56.8088 38.2423 55.8173 37.8646 57.2809 35.3623C57.8003 34.4181 58.3196 33.4738 58.839 32.5768C57.7531 33.1433 56.6672 33.7571 55.5813 34.3236C54.4482 34.843 53.7872 35.1263 52.6069 35.1735C50.2463 35.3623 50.4823 35.1263 50.7184 37.8174C48.3105 37.7702 46.4692 37.2036 44.1558 36.4954C41.8424 35.5984 39.4818 34.7486 37.1684 33.8515C35.2326 33.3322 33.533 32.8601 31.5028 32.8601C31.3612 30.1217 31.4556 27.289 31.0779 24.5978C30.9835 24.1257 30.8891 23.6064 30.8419 23.087Z" fill="#313131"/>
<path fill-rule="evenodd" clip-rule="evenodd" d="M20.8796 106.605H64.1263C64.1736 106.605 64.2208 106.652 64.2208 106.699V107.549C64.2208 107.596 64.1736 107.644 64.1263 107.644H20.8796C20.8324 107.644 20.7852 107.596 20.7852 107.549V106.699C20.7852 106.605 20.8324 106.605 20.8796 106.605Z" fill="#313131"/>
<path fill-rule="evenodd" clip-rule="evenodd" d="M62.5681 22C61.7655 22 61.0573 22.3305 60.4908 22.8498C59.9242 23.4636 59.5938 24.1246 59.5938 25.0216C59.5938 25.8242 59.9242 26.4852 60.4908 27.0518C61.0573 27.6655 61.7655 27.9016 62.5681 27.9016C63.3708 27.9016 64.1262 27.6655 64.6927 27.0518C65.2593 26.4852 65.5425 25.777 65.5425 25.0216C65.5425 24.1718 65.2593 23.4636 64.6927 22.8498C64.1262 22.3305 63.418 22 62.5681 22ZM60.8685 23.2747C61.3406 22.8498 61.9544 22.5666 62.5681 22.5666C63.2291 22.5666 63.8429 22.8498 64.2678 23.2747C64.7399 23.7941 64.976 24.3134 64.976 25.0216C64.976 25.6826 64.7399 26.2963 64.2678 26.7213C63.7957 27.1934 63.1819 27.4295 62.5681 27.4295C61.9072 27.4295 61.2934 27.1934 60.8685 26.7213C60.3964 26.2963 60.1603 25.6826 60.2075 25.0216C60.1603 24.3134 60.3964 23.7469 60.8685 23.2747Z" fill="#313131"/>
<path fill-rule="evenodd" clip-rule="evenodd" d="M61.3887 26.4851V23.6996H62.569C62.8523 23.6996 63.0883 23.7468 63.23 23.794C63.3716 23.8412 63.466 23.9356 63.5605 24.0773C63.6549 24.2189 63.7021 24.3606 63.7021 24.5022C63.7021 24.6911 63.6549 24.8799 63.5132 25.0215C63.3716 25.1632 63.23 25.2576 62.9467 25.2576C63.0883 25.3048 63.1828 25.3992 63.23 25.4937C63.3244 25.5881 63.4188 25.7297 63.5605 25.9658L63.8909 26.4851H63.23L62.8051 25.8714C62.6634 25.6353 62.569 25.5409 62.5218 25.4465C62.4746 25.3992 62.4273 25.352 62.3329 25.352C62.2857 25.352 62.1913 25.3048 62.0496 25.3048H61.9552V26.4851H61.3887ZM61.9552 24.8799H62.3801C62.6634 24.8799 62.805 24.8799 62.8995 24.8327C62.9467 24.7855 63.0411 24.7855 63.0411 24.7383C63.0883 24.6911 63.0883 24.5966 63.0883 24.5494C63.0883 24.455 63.0411 24.3606 62.9939 24.3133C62.9467 24.2661 62.8523 24.2189 62.8051 24.2189C62.7578 24.2189 62.6162 24.2189 62.3801 24.2189H61.9552V24.8799Z" fill="#313131"/>
</svg>

<svg width="85" height="140" fill="none" xmlns="http://www.w3.org/2000/svg"><path fill="#F6F6F6" d="M0 0h85v140H0z"/><path fill-rule="evenodd" clip-rule="evenodd" d="M18 117.512v-7.129h5.24v1.18h-3.776v1.558h3.54v1.18h-3.54v1.936h3.966v1.18H18v.095zm6.61 0v-7.129h3.021c.756 0 1.322.047 1.653.189.33.141.614.377.85.661.189.33.33.708.33 1.133 0 .519-.141.991-.472 1.322-.33.33-.803.566-1.416.661.33.188.566.377.755.613.189.236.472.614.803 1.181l.85 1.369h-1.7l-1.039-1.558c-.378-.567-.614-.897-.755-1.039a1.118 1.118 0 00-.425-.283 2.303 2.303 0 00-.708-.095h-.284v2.975H24.61zm1.463-4.108h1.039c.708 0 1.133-.047 1.275-.094.189-.047.283-.142.425-.283a.955.955 0 00.141-.52c0-.236-.047-.425-.188-.566a1.13 1.13 0 00-.52-.284c-.094 0-.472-.047-1.039-.047h-1.133v1.794zm9.018 1.511v-1.18h3.069v2.833c-.283.283-.756.566-1.322.755a4.423 4.423 0 01-1.747.331c-.755 0-1.37-.142-1.936-.473a3.01 3.01 0 01-1.227-1.322 4.255 4.255 0 01-.425-1.888c0-.755.141-1.416.472-1.983.33-.567.755-1.039 1.37-1.322a3.763 3.763 0 011.699-.378c.897 0 1.558.189 2.077.567.472.378.803.897.944 1.558l-1.416.283a1.7 1.7 0 00-.567-.85c-.283-.189-.613-.283-1.038-.283-.614 0-1.133.189-1.511.614-.378.378-.567.991-.567 1.794 0 .85.19 1.464.567 1.888.378.425.85.614 1.463.614.284 0 .614-.047.898-.189.283-.094.566-.283.755-.425v-.897h-1.558v-.047zm4.438-4.485h1.416v3.871c0 .614 0 .992.047 1.181.048.283.19.519.425.708.236.189.52.283.945.283.425 0 .708-.094.897-.236.189-.189.33-.378.377-.614.048-.236.048-.661.048-1.227v-3.919h1.463v3.73c0 .85-.047 1.464-.094 1.794-.095.331-.236.661-.425.897s-.472.425-.85.567c-.33.141-.803.236-1.37.236-.66 0-1.18-.095-1.557-.236-.33-.142-.614-.378-.85-.614a1.793 1.793 0 01-.378-.803c-.094-.425-.141-.991-.141-1.794v-3.824h.047zm13.55 7.082h-1.558l-.614-1.605h-2.833l-.566 1.605h-1.51l2.737-7.129h1.511l2.833 7.129zm-2.644-2.786l-.991-2.644-.945 2.644h1.936zm3.4 2.786v-7.129h3.021c.755 0 1.322.047 1.652.189.33.141.614.377.85.661.19.33.33.708.33 1.133 0 .519-.14.991-.471 1.322-.33.33-.803.566-1.417.661.33.188.567.377.756.613.189.236.472.614.802 1.181l.85 1.369h-1.7l-1.038-1.558c-.378-.567-.614-.897-.756-1.039a1.12 1.12 0 00-.425-.283 2.303 2.303 0 00-.708-.095h-.283v2.975h-1.464zm1.463-4.108h1.039c.708 0 1.133-.047 1.274-.094.19-.047.284-.142.425-.283a.955.955 0 00.142-.52c0-.236-.047-.425-.189-.566a1.13 1.13 0 00-.52-.284c-.094 0-.471-.047-1.038-.047h-1.133v1.794zm5.713-2.974h2.596c.567 0 1.04.047 1.37.142.424.141.755.33 1.085.661.284.33.52.708.661 1.133.142.472.237.991.237 1.699a4.83 4.83 0 01-.237 1.511c-.188.519-.424.944-.755 1.275-.236.236-.567.425-.991.566-.33.095-.756.142-1.275.142H61.01v-7.129zm1.463 1.18v4.722h1.086c.378 0 .708 0 .85-.048.236-.047.425-.141.567-.283.141-.142.283-.378.377-.708.095-.331.142-.756.142-1.322 0-.567-.047-.992-.142-1.275a1.78 1.78 0 00-.425-.708c-.189-.142-.377-.283-.66-.331-.19-.047-.614-.047-1.18-.047h-.615zM30.842 23.087l-.283 6.751c-1.464 1.133-2.975 2.22-4.438 3.352v7.271c1.51-.472 3.021-.472 4.532-.472.236 5.619.378 11.284.567 16.902.094.709.141 1.464.236 2.172-.52.52-.567.944-1.606 1.605-1.133.614-1.416.567-1.7 2.03.142 1.747.142 1.889 1.37 2.833.85.236 1.227.425 2.077.047.52 13.126.992 26.203 1.511 39.329.236-.048.425-.142.661-.189v-1.181c0-.377 0-.708-.047-1.086l-.992-37.109c.803-.519 1.464-1.038 2.22-1.652.66 2.502.85 4.768.896 7.412-.188.85-.377 1.747-.566 2.597-.378 2.455-.661 4.816-.755 7.27a21.322 21.322 0 00-.095 1.748h.708c.284 1.84.52 3.682.661 5.523-.708 3.4-.283 6.185.142 9.49l.52 4.344c.094.708-1.464 1.511-1.417 2.03 0 .566.944.897 1.416 1.039.567.047.52.188 1.747-.095 1.416-.33 1.416-.566 1.275-1.605-.095-.614-.283-.708-.33-1.558-.048-1.18.094-3.022.14-4.06.19-2.125.662-4.108.945-6.232.047-1.04.142-1.747-.094-2.739.094-.472.236-.897.33-1.369.19-.897.33-1.794.425-2.691.047-.425.047-.803.095-1.228.283 0 .566.048.85.048.047 1.227.141 2.219.424 3.399.142.614.284 1.275.425 1.888-.047.473-.047.945-.094 1.417-.047.52-.095.991-.095 1.51.048.614.19 1.18.284 1.748l.425 2.266c.33 1.652.566 5.807.472 6.609-.095.378-.33.661-.425 1.086a1.788 1.788 0 000 .709c.094.377.52.566 1.086.613 1.133.142.802.142 1.983.095.33 0 .802-.095 1.085-.378.19-.189.473-.661.331-.897-.378-.614-1.039-.944-1.558-1.369 0 0 0-.614.047-.708.095-.425.708-3.777.756-4.344.33-1.18.377-2.408.519-3.588.094-1.7 0-2.738-.472-4.25.094-2.124.141-4.154.377-6.184l1.04 3.919.707 1.416.709 1.322.141-1.275.095-1.416-1.511-8.026c.472.236.897.424 1.369.66 2.077-2.596 3.683-5.146 3.966-8.734a69.768 69.768 0 00-.378-11.33c-.047-.614-.094-1.181-.142-1.795l-3.021.52c-.425-1.322-.897-2.267-2.644-3.211-1.133-.614-2.172-.944-3.494-1.322-.047.614.472-2.785.472-4.249-.283-1.18-.708-2.266-1.274-3.4-1.511-.141-2.975-.235-4.533 0-.425 1.181-.897 2.22-1.274 3.494.141 1.511.472 2.88.66 4.344-.85.33-1.84.472-2.643.897-1.275.567-2.125 1.37-3.21 2.313-.284-5.807-.52-11.567-.756-17.374 2.077.378 4.06.85 6.137 1.417 1.983.66 3.966 1.369 5.902 2.171 3.163.897 5.807 1.464 9.017 1.322 4.155-.614.945-.614 2.314-3.493 1.133-.803 2.455-1.18 3.777-2.267-2.03-.897-3.022-1.274-1.558-3.777.52-.944 1.039-1.888 1.558-2.785-1.086.566-2.172 1.18-3.258 1.747-1.133.519-1.794.802-2.974.85-2.36.188-2.125-.048-1.889 2.643-2.408-.047-4.249-.613-6.562-1.322-2.314-.897-4.674-1.746-6.988-2.643-1.935-.52-3.635-.992-5.665-.992-.142-2.738-.047-5.571-.425-8.262a14.456 14.456 0 01-.236-1.511zm-9.962 83.518h43.246c.048 0 .095.047.095.094v.85c0 .047-.047.095-.095.095H20.88c-.048 0-.095-.048-.095-.095v-.85c0-.094.047-.094.095-.094zM62.568 22c-.802 0-1.51.33-2.077.85-.567.614-.897 1.275-.897 2.172 0 .802.33 1.463.897 2.03.566.614 1.275.85 2.077.85.803 0 1.558-.236 2.125-.85.566-.567.85-1.275.85-2.03a3.07 3.07 0 00-.85-2.172c-.567-.52-1.275-.85-2.125-.85zm-1.7 1.275c.473-.425 1.086-.708 1.7-.708a2.43 2.43 0 011.7.708c.472.52.708 1.038.708 1.747 0 .66-.236 1.274-.708 1.7a2.396 2.396 0 01-1.7.707c-.66 0-1.275-.236-1.7-.708-.472-.425-.708-1.038-.66-1.7-.048-.708.188-1.274.66-1.746z" fill="#313131"/><path fill-rule="evenodd" clip-rule="evenodd" d="M61.389 26.485V23.7h1.18c.283 0 .52.047.661.094.142.047.236.142.33.283a.762.762 0 01.142.425c0 .19-.047.378-.189.52a.707.707 0 01-.566.236.483.483 0 01.283.236c.094.094.189.236.33.472l.33.52h-.66l-.425-.615c-.142-.236-.236-.33-.283-.424-.047-.048-.095-.095-.19-.095-.046 0-.14-.047-.282-.047h-.095v1.18h-.566zm.566-1.605h.425c.283 0 .425 0 .52-.047.047-.047.141-.047.141-.095.047-.047.047-.141.047-.189a.361.361 0 00-.094-.236.358.358 0 00-.189-.094h-.85v.66z" fill="#313131"/></svg>
